public/images/logo.svg

<svg fill="none" height="30" viewBox="0 0 164 30" width="164" xmlns="http://www.w3.org/2000/svg" xmlns:xlink="http://www.w3.org/1999/xlink"><linearGradient id="a" gradientUnits="userSpaceOnUse" x1="6" x2="14.6667" y1="6" y2="23.1683"><stop offset="0" stop-color="#01f1b3"/><stop offset="1" stop-color="#00d6f3"/></linearGradient><path d="m.5 4c0-1.933 1.567-3.5 3.5-3.5h22c1.933 0 3.5 1.567 3.5 3.5v22c0 1.933-1.567 3.5-3.5 3.5h-22c-1.933 0-3.5-1.567-3.5-3.5z" fill="#222c3c" stroke="#222c3c"/><path d="m15.8155 18.7367c1.3017.0821 2.5205.3323 3.6563.7505.6035.3056 1.207.5215 1.8106.6477l-.5143 2.6456c-.0247.1273-.1387.2195-.2715.2195h-3.2892c-.0612 0-.1152-.0394-.1325-.0967zm-1.6064-.0172-1.2599 4.1836c-.0173.0575-.0712.0969-.1325.0969h-3.28941c-.13261 0-.24653-.092-.27142-.2192l-.51907-2.653c.52674-.1271 1.02178-.3406 1.4851-.6406 1.2315-.4535 2.5606-.7094 3.9872-.7677zm-4.84858-12.7195c.06782 0 .12562.04807.13641.11346l1.59237 9.65034c-.3011.1761-.5902.3764-.8674.601-.67237.404-1.36468.6511-2.07692.7415l-2.14252-10.94605c-.00164-.00835-.00246-.01683-.00246-.02533 0-.07451.06186-.13492.13817-.13492zm14.50128 0c.0086 0 .0173.00079.0258.00236.0749.0139.1242.0845.11.15771l-2.1256 10.93863c-.7267-.0962-1.5268-.3408-2.4002-.7339-.1863-.1509-.3779-.2908-.5749-.4198l1.6222-9.83154c.0108-.06539.0686-.11346.1364-.11346zm-7.9809 3.76968c.1212 0 .2282.07702.264.19l1.7234 5.43202c-.9104-.3921-1.9175-.5881-3.0215-.5881-.9581 0-1.8434.1477-2.6557.4431l1.672-5.28679c.0358-.11309.1428-.19023.2641-.19023z" fill="url(#a)"/><path d="m44.0506 27.4001c2.5503 0 4.3394-.622 5.3674-1.866 1.0279-1.244 1.5419-2.964 1.5419-5.1598 0-1.089-.1741-2.0121-.5224-2.7691-.3483-.7571-.8089-1.4211-1.3819-1.9922-.5729-.5711-1.2021-1.1134-1.8874-1.627l-3.4209-2.5898c-.6628-.4958-1.1066-.9341-1.3313-1.3149-.2247-.38068-.337-.73485-.337-1.06245 0-.32761.1095-.59545.3286-.80352s.5645-.31211 1.0364-.31211c.3932 0 .7049.08854.9353.26563.2303.17708.2149.41698.2149.73573v1.48772h6.3657c0-2.32862-.7724-3.93673-1.9127-5.07892s-3.0698-1.71328-5.7886-1.71328c-2.2244 0-3.9237.52239-5.0977 1.56719-1.174 1.04479-1.761 2.56328-1.761 4.55546 0 1.90365.9943 3.59475 2.9828 5.07345l2.6626 1.9922c.7864.5844 1.4015 1.0957 1.8453 1.534.4437.4382.7555.8987.9352 1.3812.1798.4826.2697 1.0824.2697 1.7996 0 .5667-.104.974-.3118 1.2219s-.5814.3719-1.1206.3719c-.5168 0-.8792-.1528-1.087-.4582-.2078-.3055-.7159-.7283-.7159-1.2684v-2.4674h-5.4603v1.8299c0 2.3198.5982 4.0109 1.7947 5.0734s3.1485 1.5938 5.856 1.5938zm15.4226 0c.7423 0 2.0523-.2862 2.3296-.3722.2773-.0859 1.0746-.4329 1.1477-.452v-3.4179c-.1596.4029-.6548.5161-.9289.5161-.3883 0-.7748-.4193-.7748-.7499v-11.6746h1.7037v-3.38802h-1.7037v-4.26148h-6.0012v4.26148h-1.7163v3.38802h1.7163v12.8003c0 1.1346.3021 1.9766.8788 2.526.5767.5495 1.693.8242 3.3488.8242zm12.7724-.0188c.8464 0 1.5994-.2217 2.259-.6652.6596-.4434 1.5464-1.0632 1.8322-1.8969v2.5809l5.456-.0188v-15.4189c0-1.0821-.305-1.99115-.9151-2.72728-.6101-.73614-1.4373-1.29268-2.4816-1.66962-1.0444-.37693-2.2261-.5654-3.5452-.5654-2.5174 0-4.3559.41463-5.5157 1.24389-1.1597.82926-1.7396 2.23721-1.7396 4.22391v.3792c0 .1108.0055.2017.0165.2727h5.7383v-1.1973c0-.8692.3957-1.3038 1.1872-1.3038.8684 0 1.3026.5366 1.3026 1.6097v2.0488l-3.6606 1.0111c-1.2642.3459-2.2563.7672-2.9763 1.2638-.72.4967-1.2284 1.1331-1.5252 1.9091-.2969.7761-.4453 1.7716-.4453 2.9867 0 1.1352.132 2.1508.3958 3.0465.2638.8958.7557 1.6009 1.4758 2.1153.72.5144 1.7671.7716 3.1412.7716zm2.3002-4.2312c-.8784 0-1.3177-.4931-1.3177-1.4792v-2.1464c0-.6525.2251-1.1474.6753-1.4847.4502-.3374 1.0816-.6173 1.8942-.8397v4.6488c0 .3188-.0879.6154-.2636.8897s-.5051.4115-.9882.4115zm18.3724 4.25v-11.0518h5.1476v-4.2465h-5.1476v-3.40352h5.1476v-5.09818h-11.9906v23.8zm16.2818-19.55v-4.25h-5.995v4.25zm0 19.55v-17h-5.995v17z" fill="#222c3c"/><path d="m120.25 4c0-2.07107 1.679-3.75 3.75-3.75h36c2.071 0 3.75 1.67893 3.75 3.75v10c0 2.0711-1.679 3.75-3.75 3.75h-36c-2.071 0-3.75-1.6789-3.75-3.75z" stroke="#222c3c" stroke-width=".5"/><path d="m130.346 11.834v1.166h-4.283v-1.166zm-3.873-7.36525v8.53125h-1.471v-8.53125zm10.221 7.36525v1.166h-4.283v-1.166zm-3.873-7.36525v8.53125h-1.47v-8.53125zm8.318 1.13672-2.549 7.39453h-1.541l3.211-8.53125h.984zm2.132 7.39453-2.554-7.39453-.112-1.13672h.991l3.222 8.53125zm-.123-3.16406v1.16606h-4.64v-1.16606zm5.816-4.23047-2.549 7.39453h-1.541l3.211-8.53125h.984zm2.133 7.39453-2.555-7.39453-.111-1.13672h.99l3.222 8.53125zm-.124-3.16406v1.16606h-4.64v-1.16606zm6.982.96676c0-.1757-.028-.332-.082-.4687-.051-.1367-.143-.2617-.276-.37502-.132-.11328-.32-.22265-.562-.32812-.238-.10938-.543-.2207-.914-.33398-.406-.125-.781-.26368-1.125-.41602-.34-.15625-.637-.33594-.891-.53906-.254-.20703-.451-.44336-.592-.70899-.14-.26953-.211-.58008-.211-.93164 0-.34765.073-.66406.217-.94922.149-.28515.358-.53125.627-.73828.274-.21094.596-.37305.967-.48633.371-.11718.781-.17578 1.23-.17578.633 0 1.178.11719 1.635.35156.461.23438.815.54883 1.061.94336.25.39454.375.83008.375 1.30664h-1.459c0-.28124-.061-.52929-.182-.74414-.117-.21875-.297-.39062-.539-.51562-.238-.125-.541-.1875-.908-.1875-.348 0-.637.05273-.867.1582-.231.10547-.403.24805-.516.42774-.113.17968-.17.38281-.17.60937 0 .16016.037.30664.111.43945.075.12891.188.25.34.36329.153.10937.344.21289.575.31054.23.09766.501.19141.814.28125.473.14063.885.29688 1.236.46875.352.16797.645.35938.879.57422.235.21485.41.45899.528.73242.117.26951.175.57621.175.91991 0 .3594-.072.6836-.216.9727-.145.2851-.352.5293-.622.7324-.265.1992-.586.3535-.961.4629-.371.1055-.785.1582-1.242.1582-.41 0-.814-.0547-1.213-.1641-.394-.1093-.753-.2754-1.078-.498-.324-.2266-.582-.5078-.773-.8438-.192-.3398-.287-.7363-.287-1.1894h1.47c0 .2773.047.5136.141.709.098.1953.232.3554.404.4804.172.1211.371.211.598.2696.23.0586.477.0879.738.0879.344 0 .631-.0489.862-.1465.234-.0977.41-.2344.527-.4102s.176-.3789.176-.6094z" fill="#222c3c"/></svg>

<svg width="164" height="30" viewBox="0 0 164 30" fill="none" xmlns="http://www.w3.org/2000/svg">
<path d="M0.5 4C0.5 2.067 2.067 0.5 4 0.5H26C27.933 0.5 29.5 2.067 29.5 4V26C29.5 27.933 27.933 29.5 26 29.5H4C2.067 29.5 0.5 27.933 0.5 26V4Z" fill="#222C3C" stroke="#222C3C"/>
<path d="M15.8155 18.7367C17.1172 18.8188 18.336 19.069 19.4718 19.4872C20.0753 19.7928 20.6788 20.0087 21.2824 20.1349L20.7681 22.7805C20.7434 22.9078 20.6294 23 20.4966 23H17.2074C17.1462 23 17.0922 22.9606 17.0749 22.9033L15.8155 18.7367ZM14.2091 18.7195L12.9492 22.9031C12.9319 22.9606 12.878 23 12.8167 23H9.52729C9.39468 23 9.28076 22.908 9.25587 22.7808L8.7368 20.1278C9.26354 20.0007 9.75858 19.7872 10.2219 19.4872C11.4534 19.0337 12.7825 18.7778 14.2091 18.7195ZM9.36052 6C9.42834 6 9.48614 6.04807 9.49693 6.11346L11.0893 15.7638C10.7882 15.9399 10.4991 16.1402 10.2219 16.3648C9.54953 16.7688 8.85722 17.0159 8.14498 17.1063L6.00246 6.16025C6.00082 6.1519 6 6.14342 6 6.13492C6 6.06041 6.06186 6 6.13817 6H9.36052ZM23.8618 6C23.8704 6 23.8791 6.00079 23.8876 6.00236C23.9625 6.01626 24.0118 6.08686 23.9976 6.16007L21.872 17.0987C21.1453 17.0025 20.3452 16.7579 19.4718 16.3648C19.2855 16.2139 19.0939 16.074 18.8969 15.945L20.5191 6.11346C20.5299 6.04807 20.5877 6 20.6555 6H23.8618ZM15.8809 9.76968C16.0021 9.76968 16.1091 9.8467 16.1449 9.95968L17.8683 15.3917C16.9579 14.9996 15.9508 14.8036 14.8468 14.8036C13.8887 14.8036 13.0034 14.9513 12.1911 15.2467L13.8631 9.95991C13.8989 9.84682 14.0059 9.76968 14.1272 9.76968H15.8809Z" fill="url(#paint0_linear_1326_466)"/>
<path d="M44.0506 27.4001C46.6009 27.4001 48.39 26.7781 49.418 25.5341C50.4459 24.2901 50.9599 22.5701 50.9599 20.3743C50.9599 19.2853 50.7858 18.3622 50.4375 17.6052C50.0892 16.8481 49.6286 16.1841 49.0556 15.613C48.4827 15.0419 47.8535 14.4996 47.1682 13.986L43.7473 11.3962C43.0845 10.9004 42.6407 10.4621 42.416 10.0813C42.1913 9.70062 42.079 9.34645 42.079 9.01885C42.079 8.69124 42.1885 8.4234 42.4076 8.21533C42.6267 8.00726 42.9721 7.90322 43.444 7.90322C43.8372 7.90322 44.1489 7.99176 44.3793 8.16885C44.6096 8.34593 44.5942 8.58583 44.5942 8.90458V10.3923H50.9599C50.9599 8.06368 50.1875 6.45557 49.0472 5.31338C47.9069 4.17119 45.9774 3.6001 43.2586 3.6001C41.0342 3.6001 39.3349 4.12249 38.1609 5.16729C36.9869 6.21208 36.3999 7.73057 36.3999 9.72275C36.3999 11.6264 37.3942 13.3175 39.3827 14.7962L42.0453 16.7884C42.8317 17.3728 43.4468 17.8841 43.8906 18.3224C44.3343 18.7606 44.6461 19.2211 44.8258 19.7036C45.0056 20.1862 45.0955 20.786 45.0955 21.5032C45.0955 22.0699 44.9915 22.4772 44.7837 22.7251C44.5759 22.973 44.2023 23.097 43.6631 23.097C43.1463 23.097 42.7839 22.9442 42.5761 22.6388C42.3683 22.3333 41.8602 21.9105 41.8602 21.3704V18.903H36.3999V20.7329C36.3999 23.0527 36.9981 24.7438 38.1946 25.8063C39.3911 26.8688 41.3431 27.4001 44.0506 27.4001ZM59.4732 27.4001C60.2155 27.4001 61.5255 27.1139 61.8028 27.0279C62.0801 26.942 62.8774 26.595 62.9505 26.5759V23.158C62.7909 23.5609 62.2957 23.6741 62.0216 23.6741C61.6333 23.6741 61.2468 23.2548 61.2468 22.9242V11.2496H62.9505V7.86158H61.2468V3.6001H55.2456V7.86158H53.5293V11.2496H55.2456V24.0499C55.2456 25.1845 55.5477 26.0265 56.1244 26.5759C56.7011 27.1254 57.8174 27.4001 59.4732 27.4001ZM72.2456 27.3813C73.092 27.3813 73.845 27.1596 74.5046 26.7161C75.1642 26.2727 76.051 25.6529 76.3368 24.8192V27.4001L81.7928 27.3813V11.9624C81.7928 10.8803 81.4878 9.97125 80.8777 9.23512C80.2676 8.49898 79.4404 7.94244 78.3961 7.5655C77.3517 7.18857 76.17 7.0001 74.8509 7.0001C72.3335 7.0001 70.495 7.41473 69.3352 8.24399C68.1755 9.07325 67.5956 10.4812 67.5956 12.4679V12.8471C67.5956 12.9579 67.6011 13.0488 67.6121 13.1198H73.3504V11.9225C73.3504 11.0533 73.7461 10.6187 74.5376 10.6187C75.406 10.6187 75.8402 11.1553 75.8402 12.2284V14.2772L72.1796 15.2883C70.9154 15.6342 69.9233 16.0555 69.2033 16.5521C68.4833 17.0488 67.9749 17.6852 67.6781 18.4612C67.3812 19.2373 67.2328 20.2328 67.2328 21.4479C67.2328 22.5831 67.3648 23.5987 67.6286 24.4944C67.8924 25.3902 68.3843 26.0953 69.1044 26.6097C69.8244 27.1241 70.8715 27.3813 72.2456 27.3813ZM74.5458 23.1501C73.6674 23.1501 73.2281 22.657 73.2281 21.6709V19.5245C73.2281 18.872 73.4532 18.3771 73.9034 18.0398C74.3536 17.7024 74.985 17.4225 75.7976 17.2001V21.8489C75.7976 22.1677 75.7097 22.4643 75.534 22.7386C75.3583 23.0129 75.0289 23.1501 74.5458 23.1501ZM92.9182 27.4001V16.3483H98.0658V12.1018H92.9182V8.69828H98.0658V3.6001H86.0752V27.4001H92.9182ZM109.2 7.8501V3.6001H103.205V7.8501H109.2ZM109.2 27.4001V10.4001H103.205V27.4001H109.2Z" fill="#222C3C"/>
<path d="M120.25 4C120.25 1.92893 121.929 0.25 124 0.25H160C162.071 0.25 163.75 1.92893 163.75 4V14C163.75 16.0711 162.071 17.75 160 17.75H124C121.929 17.75 120.25 16.0711 120.25 14V4Z" stroke="#222C3C" stroke-width="0.5"/>
<path d="M130.512 11.834V13H126.229V11.834H130.512ZM126.639 4.46875V13H125.168V4.46875H126.639ZM136.005 10.8027C136.005 10.627 135.978 10.4707 135.923 10.334C135.872 10.1973 135.78 10.0723 135.648 9.95898C135.515 9.8457 135.327 9.73633 135.085 9.63086C134.847 9.52148 134.542 9.41016 134.171 9.29688C133.765 9.17188 133.39 9.0332 133.046 8.88086C132.706 8.72461 132.409 8.54492 132.155 8.3418C131.902 8.13477 131.704 7.89844 131.564 7.63281C131.423 7.36328 131.353 7.05273 131.353 6.70117C131.353 6.35352 131.425 6.03711 131.569 5.75195C131.718 5.4668 131.927 5.2207 132.196 5.01367C132.47 4.80273 132.792 4.64062 133.163 4.52734C133.534 4.41016 133.944 4.35156 134.394 4.35156C135.027 4.35156 135.571 4.46875 136.028 4.70312C136.489 4.9375 136.843 5.25195 137.089 5.64648C137.339 6.04102 137.464 6.47656 137.464 6.95312H136.005C136.005 6.67188 135.944 6.42383 135.823 6.20898C135.706 5.99023 135.527 5.81836 135.284 5.69336C135.046 5.56836 134.743 5.50586 134.376 5.50586C134.028 5.50586 133.739 5.55859 133.509 5.66406C133.278 5.76953 133.107 5.91211 132.993 6.0918C132.88 6.27148 132.823 6.47461 132.823 6.70117C132.823 6.86133 132.861 7.00781 132.935 7.14062C133.009 7.26953 133.122 7.39062 133.275 7.50391C133.427 7.61328 133.618 7.7168 133.849 7.81445C134.079 7.91211 134.351 8.00586 134.663 8.0957C135.136 8.23633 135.548 8.39258 135.9 8.56445C136.251 8.73242 136.544 8.92383 136.778 9.13867C137.013 9.35352 137.189 9.59766 137.306 9.87109C137.423 10.1406 137.482 10.4473 137.482 10.791C137.482 11.1504 137.409 11.4746 137.265 11.7637C137.12 12.0488 136.913 12.293 136.644 12.4961C136.378 12.6953 136.058 12.8496 135.683 12.959C135.312 13.0645 134.898 13.1172 134.441 13.1172C134.03 13.1172 133.626 13.0625 133.228 12.9531C132.833 12.8438 132.474 12.6777 132.15 12.4551C131.825 12.2285 131.568 11.9473 131.376 11.6113C131.185 11.2715 131.089 10.875 131.089 10.4219H132.56C132.56 10.6992 132.607 10.9355 132.7 11.1309C132.798 11.3262 132.933 11.4863 133.105 11.6113C133.277 11.7324 133.476 11.8223 133.702 11.8809C133.933 11.9395 134.179 11.9688 134.441 11.9688C134.784 11.9688 135.071 11.9199 135.302 11.8223C135.536 11.7246 135.712 11.5879 135.829 11.4121C135.946 11.2363 136.005 11.0332 136.005 10.8027ZM141.973 5.60547L139.424 13H137.883L141.094 4.46875H142.078L141.973 5.60547ZM144.105 13L141.551 5.60547L141.439 4.46875H142.43L145.652 13H144.105ZM143.982 9.83594V11.002H139.342V9.83594H143.982ZM149.798 5.60547L147.249 13H145.708L148.919 4.46875H149.903L149.798 5.60547ZM151.931 13L149.376 5.60547L149.264 4.46875H150.255L153.477 13H151.931ZM151.807 9.83594V11.002H147.167V9.83594H151.807ZM158.789 10.8027C158.789 10.627 158.761 10.4707 158.707 10.334C158.656 10.1973 158.564 10.0723 158.431 9.95898C158.299 9.8457 158.111 9.73633 157.869 9.63086C157.631 9.52148 157.326 9.41016 156.955 9.29688C156.549 9.17188 156.174 9.0332 155.83 8.88086C155.49 8.72461 155.193 8.54492 154.939 8.3418C154.685 8.13477 154.488 7.89844 154.347 7.63281C154.207 7.36328 154.136 7.05273 154.136 6.70117C154.136 6.35352 154.209 6.03711 154.353 5.75195C154.502 5.4668 154.711 5.2207 154.98 5.01367C155.254 4.80273 155.576 4.64062 155.947 4.52734C156.318 4.41016 156.728 4.35156 157.177 4.35156C157.81 4.35156 158.355 4.46875 158.812 4.70312C159.273 4.9375 159.627 5.25195 159.873 5.64648C160.123 6.04102 160.248 6.47656 160.248 6.95312H158.789C158.789 6.67188 158.728 6.42383 158.607 6.20898C158.49 5.99023 158.31 5.81836 158.068 5.69336C157.83 5.56836 157.527 5.50586 157.16 5.50586C156.812 5.50586 156.523 5.55859 156.293 5.66406C156.062 5.76953 155.89 5.91211 155.777 6.0918C155.664 6.27148 155.607 6.47461 155.607 6.70117C155.607 6.86133 155.644 7.00781 155.718 7.14062C155.793 7.26953 155.906 7.39062 156.058 7.50391C156.211 7.61328 156.402 7.7168 156.632 7.81445C156.863 7.91211 157.134 8.00586 157.447 8.0957C157.92 8.23633 158.332 8.39258 158.683 8.56445C159.035 8.73242 159.328 8.92383 159.562 9.13867C159.797 9.35352 159.972 9.59766 160.09 9.87109C160.207 10.1406 160.265 10.4473 160.265 10.791C160.265 11.1504 160.193 11.4746 160.049 11.7637C159.904 12.0488 159.697 12.293 159.427 12.4961C159.162 12.6953 158.841 12.8496 158.466 12.959C158.095 13.0645 157.681 13.1172 157.224 13.1172C156.814 13.1172 156.41 13.0625 156.011 12.9531C155.617 12.8438 155.257 12.6777 154.933 12.4551C154.609 12.2285 154.351 11.9473 154.16 11.6113C153.968 11.2715 153.873 10.875 153.873 10.4219H155.343C155.343 10.6992 155.39 10.9355 155.484 11.1309C155.582 11.3262 155.716 11.4863 155.888 11.6113C156.06 11.7324 156.259 11.8223 156.486 11.8809C156.716 11.9395 156.963 11.9688 157.224 11.9688C157.568 11.9688 157.855 11.9199 158.086 11.8223C158.32 11.7246 158.496 11.5879 158.613 11.4121C158.73 11.2363 158.789 11.0332 158.789 10.8027Z" fill="#222C3C"/>
<defs>
<linearGradient id="paint0_linear_1326_466" x1="6" y1="6" x2="14.6667" y2="23.1683" gradientUnits="userSpaceOnUse">
<stop stop-color="#01F1B3"/>
<stop offset="1" stop-color="#00D6F3"/>
</linearGradient>
</defs>
</svg>
